X:70
T:Wilt Thou Be My Dearie
C:arr. Carlo Minasi
M:2/4
L:1/8
B:Chappell's One Hundred Scotch Melodies
B:Arranged for the Concertina by Carlo Minasi
Q:"Andantino  "1/4=100
Z:Peter Dunk 2012
K:G
!p!(G>DE>D)|L([G2B,2] [DB,]z/D/)|(G>A c/B/A/G/)|\
([BG][AF]) ([A/F/][c/A/][B/G/][A/F/])|\
(G>DE>D)|(L[G2B,2] [DB,])z|
%
[GB,]>[GC][BD][dB,])|([cE][BD]) [B2D2]|\
([AC]>[GB,]) ([AFD][B/G/][d/B/])|[e3G3c3] [gcE]|\
([dBG]>e) (e/d/c/B/)|([eGC][AG^C]) ([AFD][B/D/][A/=C/])|
%
([GB,]>[DB,][EC]>[DB,])|L([G2B,2] D) z|\
([eGC]>d) ([dGB,][B/D/][G/B,/])|([BEC]A) \
([A/F/D/]=c/B/A/)|[GB,]>[DB,][EC]>[DB,]|L([G2B,2] D) z|

